fs/folder_zip_20_filled.svg

<svg viewBox="0 0 20 20" fill="none" xmlns="http://www.w3.org/2000/svg" height="1em" width="1em">
  <path d="M12.0046 4.5H10.565L8.15819 7.03312L8.04702 7.13877C7.81509 7.33763 7.52777 7.46098 7.22385 7.49217L7.07069 7.5H2V14.5L2.00532 14.6644C2.08996 15.9685 3.17452 17 4.5 17H13.0044L13.0034 15.0586C13.0012 15.0394 13 15.0198 13 15C13 14.9803 13.0011 14.961 13.0033 14.9419L13.0029 14H12.5046C12.2285 14 12.0046 13.7761 12.0046 13.5C12.0046 13.2239 12.2285 13 12.5046 13H13.0024L13.0014 11L13 11H12.5C12.2239 11 12 10.7761 12 10.5C12 10.2239 12.2239 10 12.5 10H13L13.0004 9H12.5046C12.2285 9 12.0046 8.77614 12.0046 8.5V4.5ZM14.0046 4.5H13.0046V8H14.0046V4.5ZM15.0046 4.5H15.5C16.7703 4.5 17.8192 5.44737 17.9789 6.67409L17.9947 6.83562L18 7V14.5C18 15.8255 16.9685 16.91 15.6644 16.9947L15.5 17H14.0044L14.0036 15.5H14.5C14.7761 15.5 15 15.2761 15 15C15 14.7239 14.7761 14.5 14.5 14.5H14.0031L14.0026 13.545C14.004 13.5302 14.0046 13.5152 14.0046 13.5C14.0046 13.4847 14.0039 13.4695 14.0026 13.4545L14.0021 12.5H14.5046C14.7808 12.5 15.0046 12.2761 15.0046 12C15.0046 11.7239 14.7808 11.5 14.5046 11.5H14.0016L14.0004 9H14.5046C14.6372 9 14.7644 8.94732 14.8582 8.85355C14.952 8.75979 15.0046 8.63261 15.0046 8.5V4.5ZM7.93238 3.21016C7.70151 3.0731 7.43713 3 7.16667 3H4.5L4.33562 3.00532C3.03154 3.08996 2 4.17452 2 5.5V6.5H7.07069L7.15196 6.49335C7.23201 6.48017 7.3077 6.44767 7.3724 6.39872L7.43319 6.34437L9.385 4.289L8.06667 3.3L7.93238 3.21016Z" fill="#212121"/>
</svg>

<svg viewBox="0 0 20 20" fill="none" xmlns="http://www.w3.org/2000/svg" height="1em" width="1em">
  <path d="M12.005 4.5h-1.44L8.158 7.033l-.111.106a1.5 1.5 0 0 1-.823.353L7.07 7.5H2v7l.005.164A2.5 2.5 0 0 0 4.5 17h8.504v-1.941a.515.515 0 0 1 0-.117L13.002 14h-.498a.5.5 0 0 1 0-1h.497v-2H12.5a.5.5 0 0 1 0-1h.5V9h-.495a.5.5 0 0 1-.5-.5v-4Zm2 0h-1V8h1V4.5Zm1 0h.495a2.5 2.5 0 0 1 2.479 2.174l.016.162L18 7v7.5a2.5 2.5 0 0 1-2.336 2.495L15.5 17h-1.496v-1.5h.496a.5.5 0 0 0 0-1h-.497v-.955a.478.478 0 0 0 0-.09V12.5h.502a.5.5 0 1 0 0-1h-.503L14 9h.505a.5.5 0 0 0 .5-.5v-4ZM7.932 3.21A1.5 1.5 0 0 0 7.167 3H4.5l-.164.005A2.5 2.5 0 0 0 2 5.5v1h5.07l.082-.007a.5.5 0 0 0 .22-.094l.061-.055L9.385 4.29 8.067 3.3l-.135-.09Z" fill="#212121"/>
</svg>
